src/icons/info-warm.svg

<svg xmlns="http://www.w3.org/2000/svg" width="24" height="24" fill="none"><path fill="#A3998F" d="M12 2C6.489 2 2 6.489 2 12s4.489 10 10 10 10-4.489 10-10S17.511 2 12 2m0 2c4.4301 0 8 3.5699 8 8 0 4.4301-3.5699 8-8 8-4.4301 0-8-3.5699-8-8 0-4.4301 3.5699-8 8-8m-1 3v2h2V7zm0 4v6h2v-6z"/></svg>

<svg width="24" height="24" viewBox="0 0 24 24" fill="none" xmlns="http://www.w3.org/2000/svg">
<path d="M12 2C6.489 2 2 6.489 2 12C2 17.511 6.489 22 12 22C17.511 22 22 17.511 22 12C22 6.489 17.511 2 12 2ZM12 4C16.4301 4 20 7.56988 20 12C20 16.4301 16.4301 20 12 20C7.56988 20 4 16.4301 4 12C4 7.56988 7.56988 4 12 4ZM11 7V9H13V7H11ZM11 11V17H13V11H11Z" fill="#A3998F"/>
</svg>
